X:611
T:
S:Obekant, varifrån uppteckningen föreskriver sig.
R:kadrilj
O:Obekant
M:2/4
L:1/16
K:A
e2|e4 ^de fe|c4 Bc dc|B2 E2 G2 B2|A2 c2 f2 e2|
e4 ^de fe|a4 ga ba|ag fe b2 ^df|e4 z2::ea|
c'2 e2 a2 c2|e2 AB c2 A2|B2 GB B2 e2|g2 b2 e'3 d'|
c'2 e2 a2 c2|e2 AB c2 A2|B2 EG Bd fe|A4 z2:|
K:D
|:A2|f3 d AA BA|F2 d2 A2 f2|e2 ga A2 ce|f2 d2 cd
ed|f2 d2 AABA|F2 d2 A2 f2|e2 ga A2 ce|d4 z2:|
K:A
|:c2|e2 c2 A2 ga|c'2 d'c' a2 ef|e2 ce d2 Bd|c2 Ac BG E2|
e2 c2 A2 af|e2 ce d2 B2|A2 cE Ac ea|A2 A2 A2:|

